Papirus/22x22/apps/xcom-enemy-unknown.svg

<svg width="22" height="22" version="1.1" xmlns="http://www.w3.org/2000/svg">
 <path d="m6.0000009 1.4996343c-0.43057-2.25e-4 -0.812954 0.2751545-0.949219 0.6835938l-3 8.9999999c-0.11307 0.339284-0.03637 0.713122 0.201172 0.980468l8.0000001 9c0.397902 0.448405 1.098192 0.448405 1.496094 0l8-9c0.237538-0.267346 0.314242-0.641184 0.201172-0.980468l-3-8.9999998c-0.136264-0.4084395-0.518649-0.683819-0.949219-0.6835939z" style="opacity:.2"/>
 <path d="m6.0000009 1c-0.43057-2.2512e-4 -0.812954 0.2751545-0.949219 0.6835938l-3 9.0000002c-0.11307 0.339284-0.03637 0.713122 0.201172 0.980468l8.0000001 9c0.397902 0.448405 1.098192 0.448405 1.496094 0l8-9c0.237538-0.267346 0.314242-0.641184 0.201172-0.980468l-3-9.0000002c-0.136264-0.4084394-0.518649-0.68381901-0.949219-0.6835938z" style="fill:#3134a1"/>
 <path d="m11 9a11 6.5 0 0 0-8.7890625 2.603516c0.0148799 0.019461 0.0245876 0.042057 0.0410156 0.060546l7.9999999 9c0.397902 0.448406 1.098192 0.448406 1.496094 0l8-9c0.016791-0.018898 0.025842-0.042587 0.041015-0.0625a11 6.5 0 0 0-8.789062-2.601562z" style="fill:#386ab5"/>
 <path d="m6 1c-0.43057-2.2508e-4 -0.8129537 0.2751545-0.9492188 0.6835938l-3 9.0000002c-0.0626207 0.187903-0.0625495 0.385171-0.0136718 0.570312 0.005958-0.023431 0.0059554-0.047158 0.0136718-0.070312l3-9.0000002c0.1362651-0.4084394 0.5186488-0.6838188 0.9492188-0.6835938h10c0.43057-2.251e-4 0.812955 0.2751542 0.949219 0.6835938l3 9.0000002c0.007716 0.023154 0.007714 0.046881 0.013672 0.070312 0.048878-0.185141 0.048948-0.382409-0.013672-0.570312l-3-9.0000002c-0.136264-0.4084395-0.518649-0.68381897-0.949219-0.6835938h-10z" style="fill:#ffffff;opacity:.1"/>
 <path d="M 6,1.5002811 C 5.56943,1.5000561 5.1870463,1.7754356 5.0507812,2.1838749 L 4.2207031,4.6741092 9,11.500281 5.7675781,16.119422 8.0039062,18.637 11,14.357703 13.996094,18.637 16.232422,16.119422 13,11.500281 17.779297,4.6741092 16.949219,2.1838749 C 16.812955,1.7754354 16.43057,1.500056 16,1.5002811 l -5,7.1425781 z" style="opacity:.2"/>
 <path d="M 6 1 C 5.56943 0.99977492 5.1870463 1.2751545 5.0507812 1.6835938 L 4.2207031 4.1738281 L 9 11 L 5.7675781 15.619141 L 8.0039062 18.136719 L 11 13.857422 L 13.996094 18.136719 L 16.232422 15.619141 L 13 11 L 17.779297 4.1738281 L 16.949219 1.6835938 C 16.812955 1.2751543 16.43057 0.99977483 16 1 L 11 8.1425781 L 6 1 z " style="fill:#469fe3"/>
 <path d="m6 1c-0.43057-2.2504e-4 -0.8129537 0.2751544-0.9492188 0.6835938l-0.8300781 2.4902343 0.1132813 0.1621094 0.7167968-2.1523437c0.1362651-0.4084394 0.5186488-0.6838188 0.9492188-0.6835938l5 7.1425781 5-7.1425781c0.43057-2.251e-4 0.812955 0.2751542 0.949219 0.6835938l0.716797 2.1523437 0.113281-0.1621094-0.830078-2.4902343c-0.136264-0.4084396-0.518649-0.68381893-0.949219-0.6835938l-5 7.1425781-5-7.1425781zm2.8242188 10.25-3.0566407 4.369141 0.1953125 0.220703 3.0371094-4.339844-0.1757812-0.25zm4.3515622 0-0.175781 0.25 3.037109 4.339844 0.195313-0.220703-3.056641-4.369141z" style="fill:#ffffff;opacity:.2"/>
</svg>

<svg xmlns="http://www.w3.org/2000/svg" width="22" height="22" version="1.1">
 <path style="opacity:0.2" d="M 6.0005,1.4996 C 5.5699,1.4994 5.1875,1.7748 5.0513,2.1832 L 2.0513,11.183 C 1.9382,11.523 2.0149,11.896 2.2525,12.164 L 10.253,21.164 C 10.651,21.612 11.351,21.612 11.749,21.164 L 19.748,12.164 C 19.986,11.896 20.062,11.523 19.949,11.183 L 16.949,2.1832 C 16.813,1.7748 16.431,1.4994 16,1.4996 Z"/>
 <path style="fill:#3134a1" d="M 6.0005,1 C 5.5699,0.9998 5.1875,1.2752 5.0513,1.6836 L 2.0513,10.684 C 1.9382,11.023 2.0149,11.397 2.2525,11.664 L 10.253,20.664 C 10.651,21.112 11.351,21.112 11.749,20.664 L 19.748,11.664 C 19.986,11.397 20.062,11.023 19.949,10.684 L 16.949,1.6836 C 16.813,1.2752 16.431,0.9998 16,1 Z"/>
 <path style="fill:#386ab5" d="M 11.001,9 A 11,6.5 0 0 0 2.2114,11.604 C 2.2263,11.623 2.236,11.646 2.2525,11.664 L 10.253,20.664 C 10.651,21.112 11.351,21.112 11.749,20.664 L 19.748,11.664 C 19.765,11.645 19.774,11.621 19.789,11.602 A 11,6.5 0 0 0 11.001,9 Z"/>
 <path style="opacity:0.1;fill:#ffffff" d="M 6.0005,1 C 5.5699,0.9998 5.1875,1.2752 5.0513,1.6836 L 2.0513,10.684 C 1.9887,10.871 1.9887,11.069 2.0376,11.254 2.0436,11.23 2.0436,11.207 2.0513,11.184 L 5.0513,2.1836 C 5.1875,1.7752 5.5699,1.4998 6.0005,1.5 H 16 C 16.431,1.4998 16.813,1.7752 16.949,2.1836 L 19.949,11.184 C 19.957,11.207 19.957,11.23 19.963,11.254 20.012,11.069 20.012,10.871 19.949,10.684 L 16.949,1.6836 C 16.813,1.2752 16.431,0.9998 16,1 Z"/>
 <path style="opacity:0.2" d="M 6.0005,1.5003 C 5.5699,1.5001 5.1875,1.7754 5.0513,2.1839 L 4.2212,4.6741 9.001,11.5 5.7681,16.119 8.0044,18.637 11.001,14.358 13.997,18.637 16.232,16.119 13.001,11.5 17.779,4.6741 16.949,2.1839 C 16.813,1.7754 16.431,1.5001 16,1.5003 L 11.001,8.643 Z"/>
 <path style="fill:#469fe3" d="M 6.0005,1 C 5.5699,0.9998 5.1875,1.2752 5.0513,1.6836 L 4.2212,4.1738 9.001,11 5.7681,15.619 8.0044,18.137 11.001,13.857 13.997,18.137 16.232,15.619 13.001,11 17.779,4.1738 16.949,1.6836 C 16.813,1.2752 16.431,0.9998 16,1 L 11.001,8.143 Z"/>
 <path style="opacity:0.2;fill:#ffffff" d="M 6.0005,1 C 5.5699,0.9998 5.1875,1.2752 5.0513,1.6836 L 4.2212,4.1738 4.3345,4.3359 5.0513,2.1836 C 5.1875,1.7752 5.5699,1.4998 6.0005,1.5 L 11.001,8.643 16,1.5 C 16.431,1.4998 16.813,1.7752 16.949,2.1836 L 17.666,4.3359 17.779,4.1738 16.949,1.6836 C 16.813,1.2752 16.431,0.9998 16,1 L 11.001,8.143 Z M 8.8247,11.25 5.7681,15.619 5.9634,15.84 9.001,11.5 Z M 13.177,11.25 13.001,11.5 16.037,15.84 16.232,15.619 Z"/>
</svg>
